renderer/public/images/logo_simple.svg

<svg xmlns="http://www.w3.org/2000/svg" xmlns:xlink="http://www.w3.org/1999/xlink" width="500" zoomAndPan="magnify" viewBox="0 0 375 374.999991" height="500" preserveAspectRatio="xMidYMid meet" version="1.0"><defs><clipPath id="2a3d4c488b"><path d="M 126 69.046875 L 291.761719 69.046875 L 291.761719 187 L 126 187 Z M 126 69.046875 " clip-rule="nonzero"/></clipPath><clipPath id="d5fe468b7c"><path d="M 83.261719 108 L 249 108 L 249 226 L 83.261719 226 Z M 83.261719 108 " clip-rule="nonzero"/></clipPath><clipPath id="679f12d883"><path d="M 126 148 L 291.761719 148 L 291.761719 267 L 126 267 Z M 126 148 " clip-rule="nonzero"/></clipPath><clipPath id="02ee1933d9"><path d="M 83.363281 189.003906 L 248.261719 189.003906 L 248.261719 306.046875 L 83.363281 306.046875 Z M 83.363281 189.003906 " clip-rule="nonzero"/></clipPath></defs><g clip-path="url(#2a3d4c488b)"><path fill="#587d9f" d="M 233.113281 149.152344 C 227.511719 149.152344 225.617188 148.363281 208.105469 138.101562 C 203.210938 135.257812 197.214844 131.789062 189.796875 127.523438 C 197.214844 123.34375 203.132812 119.871094 208.023438 117.03125 C 225.777344 106.769531 227.667969 105.902344 233.113281 105.902344 C 245.027344 105.902344 254.65625 115.609375 254.730469 127.605469 C 254.65625 139.523438 244.949219 149.152344 233.113281 149.152344 Z M 291.65625 127.605469 C 291.65625 127.605469 291.65625 127.449219 291.65625 127.367188 C 291.578125 95.167969 265.304688 69.046875 233.113281 69.046875 C 216.859375 69.046875 208.5 73.859375 183.878906 88.222656 C 172.207031 95.007812 156.1875 104.324219 133.070312 116.871094 C 129.207031 119.003906 126.757812 123.027344 126.757812 127.523438 C 126.757812 131.945312 129.207031 136.046875 133.070312 138.179688 C 156.503906 150.886719 172.675781 160.277344 184.433594 167.144531 C 209.523438 181.746094 217.097656 186.085938 233.191406 186.085938 C 265.382812 186.085938 291.65625 159.804688 291.65625 127.605469 " fill-opacity="1" fill-rule="nonzero"/></g><g clip-path="url(#d5fe468b7c)"><path fill="#d6e0ed" d="M 141.90625 145.914062 C 147.507812 145.914062 149.402344 146.703125 166.996094 156.960938 C 171.886719 159.804688 177.886719 163.277344 185.300781 167.460938 C 177.886719 171.644531 171.96875 175.039062 167.078125 177.957031 C 149.324219 188.214844 147.429688 189.082031 141.984375 189.082031 C 130.070312 189.082031 120.445312 179.378906 120.445312 167.378906 C 120.367188 155.542969 130.070312 145.914062 141.90625 145.914062 Z M 191.140625 206.839844 C 202.816406 200.054688 218.832031 190.742188 241.949219 178.113281 C 245.816406 175.984375 248.261719 171.957031 248.261719 167.460938 C 248.261719 163.039062 245.816406 158.9375 241.949219 156.804688 C 218.519531 144.097656 202.421875 134.707031 190.667969 127.84375 C 165.574219 113.242188 158.003906 108.902344 141.90625 108.902344 C 109.636719 108.902344 83.363281 135.183594 83.363281 167.378906 L 83.363281 167.539062 C 83.445312 199.738281 109.714844 225.863281 141.90625 225.863281 C 158.160156 226.019531 166.445312 221.207031 191.140625 206.839844 " fill-opacity="1" fill-rule="nonzero"/></g><g clip-path="url(#679f12d883)"><path fill="#30373f" d="M 233.113281 229.09375 C 227.511719 229.09375 225.617188 228.304688 208.105469 218.050781 C 203.210938 215.207031 197.214844 211.734375 189.796875 207.472656 C 197.214844 203.289062 203.132812 199.816406 208.023438 196.976562 C 225.777344 186.714844 227.667969 185.847656 233.113281 185.847656 C 245.027344 185.847656 254.65625 195.558594 254.730469 207.550781 C 254.65625 219.546875 244.949219 229.09375 233.113281 229.09375 Z M 291.65625 207.550781 C 291.65625 207.550781 291.65625 207.394531 291.65625 207.316406 C 291.578125 175.113281 265.304688 148.992188 233.113281 148.992188 C 216.859375 148.992188 208.5 153.804688 183.878906 168.167969 C 172.207031 174.957031 156.1875 184.269531 133.070312 196.816406 C 129.207031 198.949219 126.757812 202.972656 126.757812 207.472656 C 126.757812 211.894531 129.207031 215.996094 133.070312 218.125 C 156.503906 230.832031 172.675781 240.222656 184.433594 247.089844 C 209.523438 261.691406 217.097656 266.03125 233.191406 266.03125 C 265.382812 266.109375 291.65625 239.828125 291.65625 207.550781 " fill-opacity="1" fill-rule="nonzero"/></g><g clip-path="url(#02ee1933d9)"><path fill="#587d9f" d="M 141.90625 226.019531 C 147.507812 226.019531 149.402344 226.808594 166.996094 237.066406 C 171.886719 239.910156 177.886719 243.382812 185.300781 247.566406 C 177.960938 251.75 171.96875 255.140625 167.078125 257.980469 C 149.324219 268.242188 147.429688 269.109375 141.984375 269.109375 C 130.070312 269.109375 120.445312 259.402344 120.445312 247.40625 C 120.367188 235.644531 130.070312 226.019531 141.90625 226.019531 Z M 191.140625 286.945312 C 202.816406 280.160156 218.832031 270.847656 241.949219 258.21875 C 245.816406 256.089844 248.261719 252.0625 248.261719 247.566406 C 248.261719 243.144531 245.816406 239.039062 241.949219 236.910156 C 218.519531 224.125 202.34375 214.8125 190.585938 207.945312 C 165.5 193.347656 157.921875 189.003906 141.828125 189.003906 C 109.636719 189.082031 83.363281 215.363281 83.363281 247.566406 L 83.363281 247.722656 C 83.445312 279.921875 109.714844 306.042969 141.90625 306.042969 C 158.160156 306.125 166.445312 301.3125 191.140625 286.945312 " fill-opacity="1" fill-rule="nonzero"/></g></svg>

<?xml version="1.0" encoding="UTF-8" standalone="no"?>
<svg
   width="277.72397"
   zoomAndPan="magnify"
   viewBox="0 0 208.29298 236.99711"
   height="315.99615"
   preserveAspectRatio="xMidYMid"
   version="1.0"
   id="svg196"
   sodipodi:docname="logo_simple.svg"
   inkscape:version="1.2.2 (b0a8486541, 2022-12-01)"
   xmlns:inkscape="http://www.inkscape.org/namespaces/inkscape"
   xmlns:sodipodi="http://sodipodi.sourceforge.net/DTD/sodipodi-0.dtd"
   xmlns="http://www.w3.org/2000/svg"
   xmlns:svg="http://www.w3.org/2000/svg">
  <sodipodi:namedview
     id="namedview198"
     pagecolor="#ffffff"
     bordercolor="#000000"
     borderopacity="0.25"
     inkscape:showpageshadow="2"
     inkscape:pageopacity="0.0"
     inkscape:pagecheckerboard="0"
     inkscape:deskcolor="#d1d1d1"
     showgrid="false"
     inkscape:zoom="0.472"
     inkscape:cx="139.83051"
     inkscape:cy="159.95763"
     inkscape:window-width="1536"
     inkscape:window-height="867"
     inkscape:window-x="0"
     inkscape:window-y="0"
     inkscape:window-maximized="1"
     inkscape:current-layer="svg196" />
  <defs
     id="defs178">
    <clipPath
       id="2a3d4c488b">
      <path
         d="M 126,69.046875 H 291.76172 V 187 H 126 Z m 0,0"
         clip-rule="nonzero"
         id="path166" />
    </clipPath>
    <clipPath
       id="d5fe468b7c">
      <path
         d="M 83.261719,108 H 249 V 226 H 83.261719 Z m 0,0"
         clip-rule="nonzero"
         id="path169" />
    </clipPath>
    <clipPath
       id="679f12d883">
      <path
         d="M 126,148 H 291.76172 V 267 H 126 Z m 0,0"
         clip-rule="nonzero"
         id="path172" />
    </clipPath>
    <clipPath
       id="02ee1933d9">
      <path
         d="M 83.363281,189.00391 H 248.26172 V 306.04687 H 83.363281 Z m 0,0"
         clip-rule="nonzero"
         id="path175" />
    </clipPath>
  </defs>
  <g
     clip-path="url(#2a3d4c488b)"
     id="g182"
     transform="translate(-83.363281,-69.046875)">
    <path
       fill="#587d9f"
       d="m 233.11328,149.15234 c -5.60156,0 -7.49609,-0.78906 -25.00781,-11.05078 -4.89453,-2.84375 -10.89063,-6.3125 -18.3086,-10.57812 7.41797,-4.17969 13.33594,-7.65235 18.22657,-10.49219 17.7539,-10.26172 19.64453,-11.12891 25.08984,-11.12891 11.91406,0 21.54297,9.70704 21.61719,21.70313 -0.0742,11.91797 -9.78125,21.54687 -21.61719,21.54687 z m 58.54297,-21.54687 c 0,0 0,-0.15625 0,-0.23828 -0.0781,-32.199221 -26.35156,-58.320315 -58.54297,-58.320315 -16.25391,0 -24.61328,4.8125 -49.23437,19.175781 -11.67188,6.785156 -27.69141,16.101564 -50.8086,28.648434 -3.86328,2.13282 -6.3125,6.15625 -6.3125,10.65235 0,4.42187 2.44922,8.52343 6.3125,10.65625 23.4336,12.70703 39.60547,22.09765 51.36328,28.96484 25.08985,14.60156 32.66407,18.94141 48.75782,18.94141 32.1914,0 58.46484,-26.28125 58.46484,-58.48047"
       fill-opacity="1"
       fill-rule="nonzero"
       id="path180" />
  </g>
  <g
     clip-path="url(#d5fe468b7c)"
     id="g186"
     transform="translate(-83.363281,-69.046875)">
    <path
       fill="#d6e0ed"
       d="m 141.90625,145.91406 c 5.60156,0 7.49609,0.78906 25.08984,11.04688 4.89063,2.84375 10.89063,6.3164 18.30469,10.5 -7.41406,4.18359 -13.33203,7.57812 -18.22266,10.49609 -17.7539,10.25781 -19.64843,11.125 -25.09375,11.125 -11.91406,0 -21.53906,-9.70312 -21.53906,-21.70312 -0.0781,-11.83594 9.625,-21.46485 21.46094,-21.46485 z m 49.23437,60.92578 c 11.67579,-6.78515 27.69141,-16.09765 50.8086,-28.72656 3.86719,-2.12891 6.3125,-6.15625 6.3125,-10.65234 0,-4.42188 -2.44531,-8.52344 -6.3125,-10.65625 -23.42969,-12.70703 -39.52735,-22.09766 -51.28125,-28.96094 -25.09375,-14.60156 -32.66406,-18.94141 -48.76172,-18.94141 -32.26953,0 -58.542969,26.28125 -58.542969,58.47657 v 0.16015 c 0.08203,32.19922 26.351559,58.32422 58.542969,58.32422 16.25391,0.15625 24.53906,-4.65625 49.23437,-19.02344"
       fill-opacity="1"
       fill-rule="nonzero"
       id="path184" />
  </g>
  <g
     clip-path="url(#679f12d883)"
     id="g190"
     transform="translate(-83.363281,-69.046875)">
    <path
       fill="#30373f"
       d="m 233.11328,229.09375 c -5.60156,0 -7.49609,-0.78906 -25.00781,-11.04297 -4.89453,-2.84375 -10.89063,-6.31641 -18.3086,-10.57812 7.41797,-4.1836 13.33594,-7.65625 18.22657,-10.4961 17.7539,-10.26172 19.64453,-11.1289 25.08984,-11.1289 11.91406,0 21.54297,9.71093 21.61719,21.70312 -0.0742,11.99609 -9.78125,21.54297 -21.61719,21.54297 z m 58.54297,-21.54297 c 0,0 0,-0.15625 0,-0.23437 -0.0781,-32.20313 -26.35156,-58.32422 -58.54297,-58.32422 -16.25391,0 -24.61328,4.8125 -49.23437,19.17578 -11.67188,6.78906 -27.69141,16.10156 -50.8086,28.64844 -3.86328,2.13281 -6.3125,6.15625 -6.3125,10.65625 0,4.42187 2.44922,8.52343 6.3125,10.65234 23.4336,12.70703 39.60547,22.09766 51.36328,28.96484 25.08985,14.60157 32.66407,18.94141 48.75782,18.94141 32.1914,0.0781 58.46484,-26.20313 58.46484,-58.48047"
       fill-opacity="1"
       fill-rule="nonzero"
       id="path188" />
  </g>
  <g
     clip-path="url(#02ee1933d9)"
     id="g194"
     transform="translate(-83.363281,-69.046875)">
    <path
       fill="#587d9f"
       d="m 141.90625,226.01953 c 5.60156,0 7.49609,0.78906 25.08984,11.04688 4.89063,2.84375 10.89063,6.3164 18.30469,10.5 -7.33984,4.18359 -13.33203,7.57421 -18.22266,10.41406 -17.7539,10.26172 -19.64843,11.1289 -25.09375,11.1289 -11.91406,0 -21.53906,-9.70703 -21.53906,-21.70312 -0.0781,-11.76172 9.625,-21.38672 21.46094,-21.38672 z m 49.23437,60.92578 c 11.67579,-6.78515 27.69141,-16.09765 50.8086,-28.72656 3.86719,-2.12891 6.3125,-6.15625 6.3125,-10.65234 0,-4.42188 -2.44531,-8.52735 -6.3125,-10.65625 C 218.51953,224.125 202.34375,214.8125 190.58594,207.94531 165.5,193.34766 157.92187,189.00391 141.82812,189.00391 c -32.1914,0.0781 -58.464839,26.35937 -58.464839,58.5625 v 0.15625 c 0.08203,32.19921 26.351559,58.32031 58.542969,58.32031 16.25391,0.082 24.53906,-4.73047 49.23437,-19.09766"
       fill-opacity="1"
       fill-rule="nonzero"
       id="path192" />
  </g>
</svg>
